X:114
T: NICHT MEHR LANGE GEHT ES HIER ZU LANDE
N: B0602
O: Europa, Mitteleuropa, Deutschland, Rheinland
R: Staende -, Seemanns -, Soldaten - Lied
M: 4/4
L: 1/16
K: Eb
E2G2 | B6B2B2B2G2E2 | F4F4z2
F2F2G2 | A6G2F2A2c2B2 | G8z4
G2A2 | c3BB4B2B2G2E2 | A4c4e4
d2c2 | B2e2d2c2B3BA2D2 | E8z4

